X:59
T:Quoan J'èri Filha a Maridèr
R:dance
T:Branle d'Ossau
L:1/8
Q:1/4=120
M:2/4
L:1/16
S:Bernard Loffet - originally in Am, transposed to Cm for G pipes
K:Cm
z6G2 | c3c c2d2 | e2c2 d2e2 | c3c c2d2 | e2c2 d2G2 | c3c c2d2 | e2c2 d2e2 | \
c3c c2d2 | e2c2 d2G2 ||
c3=B c2d2 | e2c2 d2e2 | f3d e2c2 | =B4 c2G2 | c3=B c2d2 | \
e2c2 d2e2 | f3d e2c2 | =B4 c4 |]

